public/Lindo.svg

<svg width="133" height="161" viewBox="0 0 133 161" fill="none" xmlns="http://www.w3.org/2000/svg">
<g clip-path="url(#clip0_9_81031)">
<path d="M34.6929 74.2555L28.127 30.2579L1.52734 13.6875L9.4511 55.0566L34.6929 74.2555ZM40.9181 121.567L36.7297 90.3686L13.0722 70.5986L19.1846 101.454L40.9181 121.567ZM22.1279 114.596L26.3162 138.022L46.4648 159.165L43.6348 135.28L22.1279 114.596ZM82.2339 107.396L71.877 99.6253C71.877 99.6253 71.7295 102.408 71.4526 102.597L63.8966 107.968L72.1596 114.824L72.6411 122.624L82.4604 130.709L82.2344 107.396L82.2339 107.396ZM113.533 84.5978L111.665 106.568L104.703 101.94C104.703 101.94 105.471 90.8317 105.467 90.8259C105.427 90.7514 92.0537 81.6835 92.0537 81.6835L92.4781 71.5699L113.533 84.5978Z" fill="#004711"/>
<path d="M69.4408 56.0876L67.5168 15.1758L28.125 30.2605L34.6899 74.2581L69.4408 56.0876ZM71.2522 102.485L69.6673 71.2867L36.7277 90.3707L41.595 122.369L71.2522 102.485ZM71.8178 115.17L43.6323 135.283L47.1417 159.852L72.8365 139.168L71.8178 115.17ZM82.6848 107.285L83.1368 131.055L103.512 114.37L104.53 91.7426L82.6848 107.285ZM131.217 72.8578L128.557 93.7139L112.625 106.627L114.521 84.7147L131.217 72.8573V72.8578Z" fill="#00B159"/>
<path d="M72.8759 114.772C72.8749 114.752 72.8676 114.734 72.8656 114.714C72.8576 114.632 72.8389 114.55 72.81 114.473C72.7921 114.426 72.7704 114.38 72.745 114.337C72.7305 114.31 72.7165 114.284 72.6993 114.26C72.6679 114.216 72.6328 114.175 72.5944 114.137C72.5762 114.119 72.5601 114.098 72.5404 114.081L72.5258 114.065L64.988 107.855L71.9191 103.14C72.196 102.951 72.3549 102.633 72.3399 102.299L72.2697 100.639L81.4599 107.721L81.6386 129.227L73.184 122.041L72.8759 114.772ZM35.8752 90.6727L40.1374 120.079L19.9379 100.867L14.0888 72.3475L35.8752 90.6727ZM70.4075 101.841L42.2063 121.022L37.8081 90.6785L69.1748 72.6538L70.4075 101.841ZM66.7807 16.1223L68.458 55.7137L35.2711 73.1483L29.1166 30.7335L66.7807 16.1223ZM27.1775 30.691L33.2286 72.3916L10.4105 54.4377L2.3455 15.1029L27.178 30.6915L27.1775 30.691ZM27.5297 137.871L23.2182 116.839L42.437 135.922L45.5153 157.144L27.5297 137.871ZM71.9731 138.637L47.6055 158.234L44.3652 135.903L71.0412 116.635L71.9731 138.637ZM102.563 114.015L83.5507 129.324L83.3731 107.735L103.831 92.9618L102.563 114.015ZM105.217 101.754L105.861 91.0587C105.861 91.0466 105.858 91.0356 105.858 91.0235C105.858 91.0094 105.862 90.9963 105.862 90.9816C105.861 90.9396 105.85 90.8987 105.844 90.8573C105.839 90.8274 105.839 90.7975 105.832 90.7681C105.813 90.6935 105.786 90.6213 105.751 90.5531C105.748 90.5479 105.746 90.5411 105.743 90.5353C105.702 90.4611 105.651 90.3927 105.592 90.3318C105.58 90.3192 105.566 90.3098 105.553 90.2982C105.515 90.2615 105.477 90.2243 105.433 90.1934L92.6256 81.6546L92.8121 72.2841L112.967 84.9637L111.17 105.937L105.217 101.754ZM113.123 105.528L114.884 84.9837L130.791 73.4903L128.117 93.4616L113.123 105.528ZM132.988 71.348C132.987 71.3296 132.98 71.3128 132.978 71.2945C132.973 71.2603 132.967 71.2263 132.959 71.1927C132.94 71.1082 132.911 71.0266 132.871 70.9499C132.844 70.9 132.812 70.8526 132.777 70.8083C132.758 70.7847 132.74 70.7606 132.72 70.7386C132.675 70.6928 132.626 70.6519 132.573 70.6164C132.556 70.6049 132.544 70.5886 132.526 70.5781C132.523 70.5755 132.518 70.575 132.513 70.5723C132.508 70.5692 132.503 70.5639 132.497 70.5608L110.727 58.382C110.579 58.2995 110.412 58.2581 110.243 58.2621C110.075 58.266 109.91 58.3152 109.766 58.4045L91.3909 69.7453C91.3613 69.7631 91.3379 69.7888 91.3109 69.8098C91.2781 69.835 91.2444 69.8581 91.2153 69.8874C91.1841 69.9184 91.1602 69.954 91.1342 69.9892C91.1114 70.0196 91.0854 70.0479 91.0667 70.0809C91.0428 70.1213 91.0278 70.1659 91.0096 70.2094C90.9971 70.2425 90.98 70.2724 90.9706 70.3075C90.9576 70.3547 90.954 70.404 90.9483 70.4533C90.9446 70.4848 90.9348 70.5152 90.9337 70.5477L90.7384 80.396L83.2635 75.4123C83.112 75.3106 82.9349 75.2548 82.7531 75.2514C82.5712 75.2479 82.3922 75.297 82.237 75.3929L71.4833 82.0301L71.0173 70.9924C71.0163 70.9693 71.008 70.9484 71.0059 70.9253C71.0008 70.8771 70.9924 70.8292 70.981 70.7821C70.9716 70.7475 70.9576 70.715 70.9446 70.6814C70.9295 70.6403 70.9114 70.6003 70.8906 70.5619C70.8714 70.5278 70.8485 70.4974 70.8257 70.4659C70.8022 70.4322 70.7765 70.4001 70.7488 70.3699C70.7202 70.34 70.6885 70.3143 70.6553 70.2876C70.6345 70.2708 70.6179 70.2498 70.5955 70.2341L59.4039 62.6451L69.8797 57.1417C70.0406 57.0564 70.1743 56.9268 70.265 56.7678C70.3558 56.6089 70.4 56.4272 70.3924 56.2439L68.633 14.6975C68.631 14.6466 68.619 14.5978 68.6091 14.5485C68.605 14.5276 68.604 14.5066 68.5988 14.4867C68.5772 14.4038 68.5443 14.3244 68.5011 14.2507C68.4933 14.237 68.4824 14.226 68.4741 14.2134C68.4364 14.1543 68.3923 14.0996 68.3427 14.0503C68.3245 14.0325 68.3048 14.0173 68.285 14.001C68.2575 13.978 68.2331 13.9517 68.2035 13.9318C68.1801 13.9161 68.1536 13.9077 68.1292 13.894C68.1167 13.8872 68.1074 13.8767 68.0944 13.8704L39.8688 0.11989C39.6507 0.0129187 39.4004 -0.00584292 39.1691 0.0674474L0.672339 12.1734L0.664547 12.1776C0.648964 12.1823 0.635458 12.1933 0.619874 12.1986C0.548302 12.2244 0.4801 12.2589 0.416768 12.3013L0.411054 12.304C0.389756 12.3192 0.374692 12.3407 0.355472 12.3575C0.306643 12.3978 0.257815 12.4382 0.217817 12.488C0.189247 12.5237 0.170027 12.5646 0.146652 12.6034C0.123276 12.6428 0.0973034 12.6789 0.0791225 12.7209C0.0583444 12.7712 0.0479553 12.8247 0.0365273 12.8782C0.0287355 12.9107 0.0147102 12.9401 0.0100351 12.9726C0.00951567 12.9779 0.011074 12.9826 0.0100351 12.9873C0.00484059 13.0361 0.0100351 13.0848 0.0126324 13.1341C0.0141908 13.1798 0.0121129 13.2249 0.0199048 13.2689C0.0214631 13.2763 0.0199048 13.2831 0.0214631 13.2899L8.61116 55.1756C8.65791 55.3995 8.77894 55.5993 8.95919 55.7404L20.6178 64.9143L12.1892 68.966C12.1736 68.9734 12.1621 68.9849 12.1476 68.9922C12.1346 69.0001 12.1206 69.0017 12.1081 69.009C12.0894 69.0206 12.077 69.0373 12.0598 69.0499C12.0118 69.0835 11.967 69.1214 11.9258 69.1632C11.9024 69.1868 11.879 69.2099 11.8583 69.2356C11.8183 69.287 11.7835 69.3424 11.7544 69.4008C11.744 69.4217 11.73 69.4417 11.7206 69.4637C11.6862 69.5443 11.663 69.6294 11.6515 69.7165V69.727C11.65 69.7406 11.6526 69.7542 11.6515 69.7679C11.6458 69.8465 11.6494 69.9252 11.663 70.0023C11.6645 70.0128 11.6624 70.0227 11.6645 70.0327L18.1265 101.556C18.1665 101.751 18.2642 101.927 18.407 102.063L26.5219 109.779L21.1445 113.1C21.0761 113.143 21.0133 113.195 20.9575 113.254C20.942 113.269 20.9316 113.286 20.9181 113.302C20.8713 113.358 20.8318 113.417 20.7986 113.482C20.744 113.584 20.7081 113.696 20.6926 113.811C20.6822 113.904 20.69 113.996 20.7056 114.086C20.7077 114.096 20.7051 114.106 20.7072 114.116L25.7137 138.531C25.7495 138.704 25.8321 138.865 25.9542 138.995L46.2035 160.699C46.2342 160.731 46.2695 160.756 46.3033 160.785C46.3157 160.795 46.3261 160.806 46.3391 160.816C46.4025 160.862 46.469 160.9 46.5407 160.929C46.5438 160.931 46.5459 160.933 46.55 160.934C46.5552 160.937 46.5625 160.936 46.5687 160.938C46.6752 160.978 46.7869 161.002 46.9006 161.002C47.0181 161 47.1342 160.976 47.243 160.932C47.2669 160.922 47.2923 160.917 47.3157 160.905C47.3552 160.887 47.3843 160.856 47.4191 160.832C47.444 160.816 47.4726 160.808 47.4959 160.79L73.544 139.839C73.7829 139.646 73.9159 139.35 73.9034 139.043L73.2946 124.658L81.997 132.053C82.0121 132.066 82.0318 132.071 82.048 132.083C82.0973 132.119 82.1446 132.158 82.2007 132.186C82.2194 132.194 82.2386 132.198 82.2573 132.205C82.2812 132.215 82.304 132.222 82.3279 132.23C82.4214 132.259 82.516 132.28 82.6121 132.28C82.7056 132.28 82.798 132.261 82.89 132.232C82.9108 132.225 82.9315 132.219 82.9534 132.21C82.9752 132.202 82.9975 132.198 83.0188 132.188C83.0671 132.165 83.1061 132.131 83.1487 132.101C83.1674 132.088 83.1892 132.083 83.2069 132.069L104.087 115.257C104.3 115.084 104.429 114.833 104.445 114.559L105.081 104.01L111.433 108.474C111.447 108.483 111.462 108.487 111.475 108.495C111.494 108.506 111.508 108.523 111.527 108.534C111.564 108.554 111.604 108.564 111.643 108.578C111.669 108.588 111.694 108.6 111.722 108.608C111.806 108.632 111.892 108.647 111.978 108.647C112.072 108.647 112.165 108.628 112.257 108.6C112.278 108.594 112.299 108.587 112.32 108.579C112.34 108.57 112.363 108.566 112.385 108.557C112.437 108.532 112.481 108.496 112.527 108.463C112.542 108.453 112.56 108.449 112.575 108.437L129.608 94.7318C129.8 94.5763 129.926 94.3519 129.96 94.1051L132.981 71.5331C132.985 71.509 132.979 71.4859 132.98 71.4618C132.983 71.4235 132.99 71.3868 132.988 71.348Z" fill="black"/>
</g>
<defs>
<clipPath id="clip0_9_81031">
<rect width="133" height="161" fill="white"/>
</clipPath>
</defs>
</svg>

<svg xmlns="http://www.w3.org/2000/svg" width="133" height="161" fill="none" viewBox="0 0 133 161"><g clip-path="url(#a)"><path fill="#004711" d="m34.693 74.256-6.566-43.998-26.6-16.57 7.924 41.369zm6.225 47.311L36.73 90.369l-23.658-19.77 6.113 30.855zm-18.79-6.971 4.188 23.426 20.149 21.143-2.83-23.885zm60.106-7.2-10.357-7.77s-.147 2.782-.424 2.971l-7.556 5.371 8.263 6.856.481 7.8 9.82 8.085zm31.299-22.798-1.868 21.97-6.962-4.628s.768-11.108.764-11.114c-.04-.075-13.413-9.142-13.413-9.142l.424-10.114z"/><path fill="#00b159" d="m69.44 56.088-1.923-40.912L28.125 30.26l6.565 43.997zm1.812 46.397-1.585-31.198-32.94 19.084 4.868 31.998zm.566 12.685-28.186 20.113 3.51 24.569 25.694-20.684zm10.867-7.885.452 23.77 20.375-16.685 1.018-22.627zm48.532-34.427-2.66 20.856-15.932 12.913 1.896-21.912z"/><path fill="#000" d="M72.876 114.772c-.001-.02-.008-.038-.01-.058a.95.95 0 0 0-.272-.577q-.026-.029-.054-.056l-.014-.016-7.538-6.21 6.931-4.715a.97.97 0 0 0 .42-.841l-.07-1.66 9.19 7.082.18 21.506-8.455-7.186zm-37-24.1 4.261 29.407-20.2-19.212-5.848-28.52zm34.532 11.169-28.202 19.181-4.398-30.344 31.367-18.024zM66.78 16.122l1.677 39.592-33.187 17.434-6.154-42.414zM27.177 30.691l6.052 41.7L10.41 54.439 2.345 15.103l24.832 15.589zm.353 107.18-4.312-21.032 19.219 19.083 3.078 21.222zm44.443.766-24.367 19.597-3.24-22.331 26.675-19.268zm30.59-24.622-19.012 15.309-.178-21.589 20.458-14.773zm2.654-12.261.644-10.695q-.001-.017-.003-.035.002-.022.004-.042c-.001-.042-.012-.083-.018-.125-.005-.03-.005-.06-.012-.089a1 1 0 0 0-.081-.215l-.008-.018a1 1 0 0 0-.151-.203q-.019-.018-.039-.034-.055-.057-.12-.105l-12.807-8.538.186-9.37 20.155 12.679-1.797 20.973zm7.906 3.774 1.761-20.544 15.907-11.494-2.674 19.972zm19.865-34.18c-.001-.018-.008-.035-.01-.053a1.2 1.2 0 0 0-.107-.345 1 1 0 0 0-.094-.142l-.057-.07a1 1 0 0 0-.147-.122c-.017-.011-.029-.027-.047-.038l-.013-.006-.016-.011-21.77-12.179a.95.95 0 0 0-.961.023l-18.375 11.34c-.03.018-.053.044-.08.065-.033.025-.067.048-.096.077q-.044.048-.08.102c-.024.03-.05.059-.068.092-.024.04-.04.085-.057.128-.013.034-.03.063-.04.099-.012.047-.016.096-.022.145-.003.032-.013.062-.014.095l-.196 9.848-7.475-4.984a.95.95 0 0 0-1.026-.02L71.483 82.03l-.466-11.038c0-.023-.009-.044-.011-.067a1 1 0 0 0-.025-.143q-.016-.05-.036-.1a1 1 0 0 0-.054-.12q-.031-.05-.065-.096a1 1 0 0 0-.077-.096 1 1 0 0 0-.094-.082c-.02-.017-.037-.038-.06-.054l-11.191-7.589 10.476-5.503a.96.96 0 0 0 .512-.898l-1.759-41.546c-.002-.051-.014-.1-.024-.15q-.004-.03-.01-.061a1 1 0 0 0-.098-.236q-.014-.02-.027-.038a1 1 0 0 0-.131-.163q-.028-.026-.058-.049c-.028-.023-.052-.05-.081-.07-.024-.015-.05-.023-.075-.037q-.017-.012-.035-.024L39.87.12a.94.94 0 0 0-.7-.053L.672 12.173l-.007.005c-.016.004-.03.015-.045.02a1 1 0 0 0-.203.103l-.006.003c-.021.015-.036.037-.056.053a1 1 0 0 0-.137.131c-.029.036-.048.077-.071.115-.024.04-.05.076-.068.118-.02.05-.031.104-.042.157-.008.033-.022.062-.027.095v.014c-.005.05 0 .098.003.147.001.046 0 .09.007.135l.001.02 8.59 41.887a.96.96 0 0 0 .348.564l11.659 9.174-8.429 4.052c-.015.007-.027.019-.041.026-.013.008-.027.01-.04.017-.019.012-.031.028-.048.04a1 1 0 0 0-.134.114q-.036.035-.068.073a1 1 0 0 0-.104.165c-.01.02-.024.04-.033.063a1 1 0 0 0-.07.252v.011c-.001.014.002.027 0 .04a1 1 0 0 0 .012.235q.001.015.002.03l6.462 31.524c.04.195.137.371.28.507l8.115 7.716-5.377 3.321a1 1 0 0 0-.187.154c-.016.015-.026.032-.04.048a1 1 0 0 0-.12.18 1 1 0 0 0-.105.329 1 1 0 0 0 .013.275q.001.015.001.03l5.007 24.415a.96.96 0 0 0 .24.464l20.25 21.704c.03.032.066.057.1.086q.017.016.035.031.095.07.202.113.004.003.009.005.009.003.019.004c.106.04.218.064.332.064a1 1 0 0 0 .342-.07c.024-.01.05-.015.073-.027.04-.018.068-.049.103-.073.025-.016.054-.024.077-.042l26.048-20.951a.97.97 0 0 0 .36-.796l-.61-14.385 8.703 7.395c.015.013.035.018.051.03.05.036.097.075.153.103q.028.01.056.019.036.014.07.025c.094.029.189.05.285.05a1 1 0 0 0 .278-.048q.03-.01.063-.022c.022-.008.044-.012.066-.022.048-.023.087-.057.13-.087.018-.013.04-.018.058-.032l20.88-16.812a.97.97 0 0 0 .358-.698l.636-10.549 6.352 4.464c.014.009.029.013.042.021.019.011.033.028.052.039.037.02.077.03.116.044q.038.017.079.03.127.038.256.039a1 1 0 0 0 .342-.068c.02-.009.043-.013.065-.022.052-.025.096-.061.142-.094.015-.01.033-.014.048-.026l17.033-13.705a.98.98 0 0 0 .352-.627l3.021-22.572c.004-.024-.002-.047-.001-.071.003-.038.01-.075.008-.114"/></g><defs><clipPath id="a"><path fill="#fff" d="M0 0h133v161H0z"/></clipPath></defs></svg>
